X: 281
T: Guo danian
L: 1/8
M: 2/4
K: A
A B c e [I:setbarnb 1]| 
B3e | 
c B A F | 
E4 | 
A B c e | 
c BA2 | 
c E F A | 
E4 | 
B cB2 | 
B e c e | 
B2E2 | 
A FA2 | 
c c G F | 
c2E2 | 
F E c B | 
A4 |]

@@@ Tune index: 9155
